X: 40
T: No_46_Cheyenne_Sun-Dance_Song_(b).krn
N: Derived from No_46_Cheyenne_Sun-Dance_Song_(b).krn
%%abc-version 2.0
%%abcx-abcm2ps-target-version 5.9.1 (29 Sep 2008)
%%abc-creator hum2abc beta
%%abcx-conversion-date 2019/03/15 08:27:55
%%humdrum-veritas 948846677
%%humdrum-veritas-data 2420090932
%%linebreak <none>
%%barnumbers 0
L: 1/8
M: 2/4
K: F clef=bass
[K:clef=bass][M:2/4]FCC2 [I:setbarnb 2]| 
CA, CA,/ z/ | 
C=B,C2 | 
DC CA, | 
F,A,-A,2 | 
A,C-C2 | 
A,F,F,2- | 
F,2z2 | 
F,F,F,2 | 
[M:3/4]A,F, A,F,F,2 | 
[M:2/4]F,C, C, z | 
C,2C,2 | 
C,2A,, z :|]  



